X: 3
T: No_102_Song_of_the_Hand_Game.krn
%%abc-version 2.0
%%abcx-abcm2ps-target-version 5.9.1 (29 Sep 2008)
%%abc-creator hum2abc beta
%%abcx-conversion-date 2020/08/10 18:54:57
%%gracespace 0 6 6
%%humdrum-veritas 2378943314
%%humdrum-veritas-data 1331496793
%%linebreak <none>
%%barnumbers 0
L: 1/8
M: 2/4
%%staves {1 2}
V: 1 clef=bass
V: 2 clef=bass
K: Ab
[V:1] [K:clef=bass][M:2/4]C2CC | 
[V:2] [K:clef=bass][M:2/4](3!accent!G,, z G,, (3!accent!G,, z G,, | 
[V:1] C>A, A,3/A,/ ||  
[V:2] (3!accent!G,, z G,,z2 ||  
[V:1] [M:3/4]C2CCC2 ||  
[V:2] [M:3/4]z6 ||  
[V:1] [M:2/4]C2CC | 
[V:2] [M:2/4]z4 | 
[V:1] C>A,A,2 ||  
[V:2] z4 ||  
[V:1] [M:3/4]B,2B,B, B,A, ||  
[V:2] [M:3/4]z6 ||  
[V:1] [M:2/4]A,2F,F, | 
[V:2] [M:2/4]z4 | 
[V:1] F,C,C,2 ||  
[V:2] z4 ||  
[V:1] [M:3/4]F,2F,F,F,2 | 
[V:2] [M:3/4]z6 | 
[V:1] F,2F,F, F,C, ||  
[V:2] z6 ||  
[V:1] [M:2/4]F,2C,2 | 
[V:2] [M:2/4]z4 | 
[V:1] C,3C, | 
[V:2] z4 | 
[V:1] C,4 |]  
[V:2] z4 |]  


